packages/kaspersky-hexa-ui-icons/src/iconsSVGs/64x42/FlagFj.svg

<svg xmlns="http://www.w3.org/2000/svg" width="64" height="42" fill="none" viewBox="0 0 64 42"><g clip-path="url(#a)"><rect width="64" height="42" fill="#fff" rx="5"/><path fill="#79cff6" d="M0 0h64v42H0z"/><path fill="#fff" fill-rule="evenodd" d="M39 22.8V13h14v9.8c0 7-7 9.8-7 9.8s-7-2.8-7-9.8" clip-rule="evenodd"/><mask id="b" width="14" height="20" x="39" y="13" maskUnits="userSpaceOnUse" style="mask-type:luminance"><path fill="#fff" fill-rule="evenodd" d="M39 22.8V13h14v9.8c0 7-7 9.8-7 9.8s-7-2.8-7-9.8" clip-rule="evenodd"/></mask><g fill-rule="evenodd" clip-rule="evenodd" mask="url(#b)"><path fill="#2a915c" d="M50.1999 20c.7732 0 1.4-.6268 1.4-1.4s-.6268-1.4-1.4-1.4-1.4.6268-1.4 1.4.6268 1.4 1.4 1.4m-8.4 0c.7732 0 1.4-.6268 1.4-1.4s-.6268-1.4-1.4-1.4-1.4.6268-1.4 1.4.6268 1.4 1.4 1.4"/><path fill="#eb1d43" d="M39 13h14v2.8h-5.6v5.6H53v2.8h-5.6v8.4h-2.8v-8.4H39v-2.8h5.6v-5.6H39z"/></g><path fill="#042c90" d="M0 0h26.7134v21H0z"/><mask id="c" width="27" height="21" x="0" y="0" maskUnits="userSpaceOnUse" style="mask-type:alpha"><path fill="#0a17a7" d="M0 0h26.7133v21H0z"/></mask><g mask="url(#c)"><mask id="d" width="35" height="27" x="-4" y="-3" fill="#000" maskUnits="userSpaceOnUse"><path fill="#fff" d="M-4-3h35v27H-4z"/><path fill-rule="evenodd" d="M10.3885 9 0 0h1.484l10.3886 7.5h2.9682L26.7134 0v1.5L16.3248 9v3l10.3886 9h-1.2582a.7.7 0 0 1-.4091-.1322L14.8408 13.5h-2.9682L0 21v-1.5L10.3885 12z" clip-rule="evenodd"/></mask><path fill="#ff2e3b" fill-rule="evenodd" d="M10.3885 9 0 0h1.484l10.3886 7.5h2.9682L26.7134 0v1.5L16.3248 9v3l10.3886 9h-1.2582a.7.7 0 0 1-.4091-.1322L14.8408 13.5h-2.9682L0 21v-1.5L10.3885 12z" clip-rule="evenodd"/><path stroke="#fff" stroke-width="3" d="M10.3885 9 0 0h1.484l10.3886 7.5h2.9682L26.7134 0v1.5L16.3248 9v3l10.3886 9h-1.2582a.7.7 0 0 1-.4091-.1322L14.8408 13.5h-2.9682L0 21v-1.5L10.3885 12z" clip-rule="evenodd" mask="url(#d)"/><path fill="#fff" fill-rule="evenodd" d="M0 7.5v6h10.3885v7.6024c0 .7719.6258 1.3976 1.3976 1.3976h3.1411c.7719 0 1.3976-.6257 1.3976-1.3976V13.5h10.4751c.7718 0 1.3975-.6257 1.3975-1.3976V8.8976c0-.7719-.6257-1.3976-1.3975-1.3976H16.3248V0h-5.9363v7.5z" clip-rule="evenodd"/><path fill="#ff2e3b" fill-rule="evenodd" d="M0 9h11.8726V0h2.9682v9h11.8726v3H14.8408v9h-2.9682v-9H0z" clip-rule="evenodd"/></g></g><defs><clipPath id="a"><rect width="64" height="42" fill="#fff" rx="5"/></clipPath></defs></svg>

<svg width="64" height="42" viewBox="0 0 64 42" fill="none" xmlns="http://www.w3.org/2000/svg">
<g clip-path="url(#clip0_37941_2242)">
<rect width="64" height="42" rx="5" fill="white"/>
<rect width="64" height="42" fill="#79CFF6"/>
<path fill-rule="evenodd" clip-rule="evenodd" d="M39 22.8C39 18.6 39 13 39 13H53C53 13 53 18.6 53 22.8C53 29.8 46 32.6 46 32.6C46 32.6 39 29.8 39 22.8Z" fill="white"/>
<mask id="mask0_37941_2242" style="mask-type:luminance" maskUnits="userSpaceOnUse" x="39" y="13" width="14" height="20">
<path fill-rule="evenodd" clip-rule="evenodd" d="M39 22.8C39 18.6 39 13 39 13H53C53 13 53 18.6 53 22.8C53 29.8 46 32.6 46 32.6C46 32.6 39 29.8 39 22.8Z" fill="white"/>
</mask>
<g mask="url(#mask0_37941_2242)">
<path fill-rule="evenodd" clip-rule="evenodd" d="M50.1999 20C50.9731 20 51.5999 19.3732 51.5999 18.6C51.5999 17.8268 50.9731 17.2 50.1999 17.2C49.4267 17.2 48.7999 17.8268 48.7999 18.6C48.7999 19.3732 49.4267 20 50.1999 20ZM41.7999 20C42.5731 20 43.1999 19.3732 43.1999 18.6C43.1999 17.8268 42.5731 17.2 41.7999 17.2C41.0267 17.2 40.3999 17.8268 40.3999 18.6C40.3999 19.3732 41.0267 20 41.7999 20Z" fill="#2A915C"/>
<path fill-rule="evenodd" clip-rule="evenodd" d="M39 13H53V15.8H47.4V21.4H53V24.2H47.4V32.6H44.6V24.2H39V21.4H44.6V15.8H39V13Z" fill="#EB1D43"/>
</g>
<rect width="26.7134" height="21" fill="#042C90"/>
<mask id="mask1_37941_2242" style="mask-type:alpha" maskUnits="userSpaceOnUse" x="0" y="0" width="27" height="21">
<rect width="26.7133" height="21" fill="#0A17A7"/>
</mask>
<g mask="url(#mask1_37941_2242)">
<mask id="path-9-outside-1_37941_2242" maskUnits="userSpaceOnUse" x="-4" y="-3" width="35" height="27" fill="black">
<rect fill="white" x="-4" y="-3" width="35" height="27"/>
<path fill-rule="evenodd" clip-rule="evenodd" d="M10.3885 9L0 0H1.48408L11.8726 7.5H14.8408L26.7134 0V1.5L16.3248 9V12L26.7134 21H25.4552C25.3083 21 25.1652 20.9537 25.0461 20.8678L14.8408 13.5H11.8726L0 21V19.5L10.3885 12V9Z"/>
</mask>
<path fill-rule="evenodd" clip-rule="evenodd" d="M10.3885 9L0 0H1.48408L11.8726 7.5H14.8408L26.7134 0V1.5L16.3248 9V12L26.7134 21H25.4552C25.3083 21 25.1652 20.9537 25.0461 20.8678L14.8408 13.5H11.8726L0 21V19.5L10.3885 12V9Z" fill="#FF2E3B"/>
<path fill-rule="evenodd" clip-rule="evenodd" d="M10.3885 9L0 0H1.48408L11.8726 7.5H14.8408L26.7134 0V1.5L16.3248 9V12L26.7134 21H25.4552C25.3083 21 25.1652 20.9537 25.0461 20.8678L14.8408 13.5H11.8726L0 21V19.5L10.3885 12V9Z" stroke="white" stroke-width="2.7952" mask="url(#path-9-outside-1_37941_2242)"/>
<path fill-rule="evenodd" clip-rule="evenodd" d="M0 7.5V13.5H10.3885V21.1024C10.3885 21.8743 11.0143 22.5 11.7861 22.5H14.9272C15.6991 22.5 16.3248 21.8743 16.3248 21.1024V13.5H26.7999C27.5717 13.5 28.1974 12.8743 28.1974 12.1024V8.8976C28.1974 8.12573 27.5717 7.5 26.7999 7.5H16.3248V0H10.3885V7.5H0Z" fill="white"/>
<path fill-rule="evenodd" clip-rule="evenodd" d="M0 9H11.8726V7.5V0H14.8408V7.5V9H26.7134V12H14.8408V13.5V21H11.8726V13.5V12H0V9Z" fill="#FF2E3B"/>
</g>
</g>
<defs>
<clipPath id="clip0_37941_2242">
<rect width="64" height="42" rx="5" fill="white"/>
</clipPath>
</defs>
</svg>
